X:1
T:He Looked Beyond My Fault
T:He Looked Beyond My Fault
T:Dottie Rambo/Londonderry Aire, 1968
C:Londerry Aire
Z:All Rights Reserved
L:1/4
Q:1/4=80
M:4/4
K:Ab
V:1 treble nm="Voice"
%%MIDI channel 4
%%MIDI program 54
V:1
 z4 | z4 | z4 | z4 | z4 | z4 |: z G A B |"Ab" c3 B | c f e"Ab7" c |"Db" B A F2- | F A"Dbm" c d | %11
w: ||||||a maz ing|grace shall|al ways be my|song of praise|_ for it was|
w: ||||||a maz ing|grace with|joy full heart I|sing of it|_ for by His|
"Ab" e3"Eb7/Bb" f |"Ab/C" e c"Bb7" A c |"Eb7sus4" B4- |"Eb7" B G A B |"Ab" c3 B | c f e"Ab7" c | %17
w: grace that|bought my lib er|ty|_ I do not|know just|why He came to|
w: grace He|set my poor heart|free|_ for all my|days I'll|nev er cease to|
"Db" B A F2- | F G"Dbm" A B |"Ab" c3 d |"Eb7" c3/2 B/"Db/Eb" A"Eb7" G |"Ab" A4- | %22
w: love me so|_ He looked be|yond my|fault and saw my|need|
w: sing His praise|_ for all the|glor y|Lord be longs to|thee|
 A e"Bbm7" f"Eb7" g |"Ab" a3 g |"Db" g f"Cm" e"Bbm7" f |"Ab" e c/B/ A2- | A e"Bbm7" f"Eb7" g | %27
w: _ I shall for|ev er|lift mine eyes to|cal va _ ry|_ to view the|
w: _ _ _ _|||||
"Fm" a3 g |"Db" g f"Ab" e c |"Bb7/F" B4- | B e"Cm" e"Eb/Bb" e |"Ab" c'3"Ab+" b |"Db" b a f a | %33
w: cross where|Je sus died for|me|_ how mar vel|ous the|grace that caught my|
w: ||||||
"Ab" e c"Fm" A2- | A G"Dbm/Fb" A B |"Ab/Eb" c3 d | c"Db/Eb" B A"Eb7" G |1,2"Ab" A4 :|3 A4 || z4 | %40
w: fal ling soul|_ He looked be|yond my|fault and saw my|need|||
w: |||||||
 z4 | z4 |] %42
w: ||
w: ||

